build/documents/DocumentAddSolid.svg

<svg xmlns="http://www.w3.org/2000/svg" fill="none" viewBox="0 0 24 24" focusable="false"><path d="M0 0H24V24H0z"/><path fill="#74767B" fill-rule="evenodd" d="M4 6C4 4.34315 5.34315 3 7 3L13.4803 3C14.2425 3 14.9761 3.2901 15.5321 3.81139L19.0518 7.11108C19.6568 7.67823 20 8.47047 20 9.2997L20 18C20 19.6569 18.6569 21 17 21L7 21C5.34315 21 4 19.6569 4 18L4 6ZM18.155 8.99999C18.4668 8.99999 18.623 8.62299 18.4025 8.4025L14.5975 4.59748C14.377 4.377 14 4.53316 14 4.84497L14 7.57479C14 8.36191 14.5982 9 15.3361 9L18.155 8.99999ZM12.0001 9C12.3591 9 12.6501 9.29102 12.6501 9.65L12.6501 12L15.0001 12C15.3591 12 15.6501 12.291 15.6501 12.65C15.6501 13.009 15.3591 13.3 15.0001 13.3L12.6501 13.3L12.6501 15.65C12.6501 16.009 12.3591 16.3 12.0001 16.3C11.6411 16.3 11.3501 16.009 11.3501 15.65L11.3501 13.3L9.0001 13.3C8.64111 13.3 8.3501 13.009 8.3501 12.65C8.3501 12.291 8.64111 12 9.0001 12L11.3501 12L11.3501 9.65C11.3501 9.29102 11.6411 9 12.0001 9Z"/></svg>

<svg xmlns="http://www.w3.org/2000/svg" fill="none" viewBox="0 0 24 24" focusable="false"><path fill="#74767B" fill-rule="evenodd" d="M4 6c0-1.66 1.34-3 3-3h6.48c.76 0 1.49.29 2.05.81l3.52 3.3c.6.56.95 1.36.95 2.18V18c0 1.65-1.35 3-3 3H7c-1.66 0-3-1.35-3-3zm14.15 2.99c.31 0 .47-.37.25-.59l-3.81-3.81c-.22-.22-.59-.06-.59.25v2.73c0 .79.59 1.43 1.33 1.43zM12 9c.35 0 .65.29.65.64V12H15c.35 0 .65.29.65.65 0 .35-.3.65-.65.65h-2.35v2.35c0 .35-.3.64-.65.64-.36 0-.65-.29-.65-.64V13.3H9c-.36 0-.65-.3-.65-.65 0-.36.29-.65.65-.65h2.35V9.64c0-.35.29-.64.65-.64"/></svg>
